X:1
T:Hughie Grame
M:4/4
L:1/4
K:G
 z2 z z/2 D/2| G G A A/2A/2| B G A2| G G/2G/2 A A|
M:6/4
 B G A3 F|
M:4/4
 G F E D| G F/2 E/2- E G| F A G E| D/2 B,3/2 A, z| D D/2D/2 D A,| C D E A|\
 G E/2E/2 E E| D B, A,2|
